presets/tower/communications_tower.svg

<svg height="14" viewBox="0 0 14 14" width="14" xmlns="http://www.w3.org/2000/svg"><path d="m-15 0h14v14h-14z" fill="none" visibility="hidden"/><g fill="#555"><path d="m6 0v3.2714844a2 2 0 0 0 -1 1.7285156 2 2 0 0 0 1 1.7304688v7.2695312h2v-7.2714844a2 2 0 0 0 1-1.7285156 2 2 0 0 0 -1-1.7304688v-3.2695312zm5.005859 0v1.28125c1.1965.7105 1.947266 1.9127594 1.947266 3.4433594s-.750766 2.7523906-1.947266 3.4628906v1.2988281c1.7687-.80156 2.998047-2.6554187 2.998047-4.7617187s-1.229447-3.9231094-2.998047-4.7246094zm-8.005859.00390625c-1.7687.80156-2.99609375 2.63198125-2.99609375 4.73828125s1.22749375 3.9602188 2.99609375 4.7617187v-1.2246093c-1.1965-.7105-1.9648438-2.078675-1.9648438-3.609375 0-1.5306.7682938-2.7250469 1.9648438-3.4355469zm1 1.85546875c-1.158.42876-2 1.5492125-2 2.8828125 0 1.3337.84197 2.4657313 2 2.8945313v-1.1445313c-.5974-.35456-.9277344-1.0204562-.9277344-1.7851563 0-.76479.3303344-1.3408124.9277344-1.6953124zm6.005859.0097656v1.1054688c.5974.35456 1.017578 1.0027781 1.017579 1.7675781 0 .76479-.420159 1.3037031-1.017579 1.6582031v1.125c1.158-.42876 1.964844-1.4495031 1.964844-2.7832031s-.806814-2.4443469-1.964844-2.8730469z"/><path d="m4 14 3-3 3 3z"/></g></svg>

<?xml version="1.0" encoding="UTF-8" standalone="no"?>
<!DOCTYPE svg PUBLIC "-//W3C//DTD SVG 1.1//EN" "http://www.w3.org/Graphics/SVG/1.1/DTD/svg11.dtd">
<svg xmlns:dc="http://purl.org/dc/elements/1.1/" xmlns:xl="http://www.w3.org/1999/xlink" version="1.1" xmlns="http://www.w3.org/2000/svg" viewBox="0 0 14 14" width="14" height="14">
  <defs/>
  <g id="Canvas_1" fill-opacity="1" stroke-dasharray="none" stroke="none" stroke-opacity="1" fill="none">
    <title>Canvas 1</title>
    <g id="Canvas_1_Layer_1">
      <title>Layer 1</title>
      <g id="Group_3">
        <g id="Graphic_7">
          <path d="M 6.1 .1 L 6.1 3.3714844 C 5.48229 3.7281178 5.1012614 4.386732 5.1 5.1 C 5.100565 5.813966 5.481687 6.473486 6.1 6.830469 L 6.1 14.1 L 8.1 14.1 L 8.1 6.828516 C 8.71771 6.471882 9.098739 5.813268 9.1 5.1 C 9.099435 4.386034 8.718313 3.726514 8.1 3.369531 L 8.1 .1 Z M 11.105859 .1 L 11.105859 1.38125 C 12.302359 2.09175 13.053125 3.2940094 13.053125 4.8246094 C 13.053125 6.3552094 12.302359 7.577 11.105859 8.2875 L 11.105859 9.586328 C 12.874559 8.784768 14.103906 6.930909 14.103906 4.8246094 C 14.103906 2.7183094 12.874459 .9015 11.105859 .1 Z M 3.1 .10390625 C 1.3313 .9054662 .10390625 2.7358875 .10390625 4.8421875 C .10390625 6.9484875 1.3314 8.802406 3.1 9.603906 L 3.1 8.379297 C 1.9035 7.668797 1.1351562 6.300622 1.1351562 4.769922 C 1.1351562 3.239322 1.90345 2.044875 3.1 1.334375 Z M 4.1 1.959375 C 2.942 2.388135 2.1 3.5085875 2.1 4.8421875 C 2.1 6.1758875 2.94197 7.307919 4.1 7.736719 L 4.1 6.5921875 C 3.5026 6.2376275 3.1722656 5.571731 3.1722656 4.807031 C 3.1722656 4.042241 3.5026 3.466219 4.1 3.1117188 Z M 10.105859 1.9691406 L 10.105859 3.0746094 C 10.703259 3.4291694 11.123437 4.0773875 11.123438 4.8421875 C 11.123438 5.6069775 10.703279 6.1458906 10.105859 6.5003906 L 10.105859 7.625391 C 11.263859 7.196631 12.070703 6.1758875 12.070703 4.8421875 C 12.070703 3.5084875 11.263889 2.3978406 10.105859 1.9691406 Z" fill="#555"/>
          <path d="M 6.1 .1 L 6.1 3.3714844 C 5.48229 3.7281178 5.1012614 4.386732 5.1 5.1 C 5.100565 5.813966 5.481687 6.473486 6.1 6.830469 L 6.1 14.1 L 8.1 14.1 L 8.1 6.828516 C 8.71771 6.471882 9.098739 5.813268 9.1 5.1 C 9.099435 4.386034 8.718313 3.726514 8.1 3.369531 L 8.1 .1 Z M 11.105859 .1 L 11.105859 1.38125 C 12.302359 2.09175 13.053125 3.2940094 13.053125 4.8246094 C 13.053125 6.3552094 12.302359 7.577 11.105859 8.2875 L 11.105859 9.586328 C 12.874559 8.784768 14.103906 6.930909 14.103906 4.8246094 C 14.103906 2.7183094 12.874459 .9015 11.105859 .1 Z M 3.1 .10390625 C 1.3313 .9054662 .10390625 2.7358875 .10390625 4.8421875 C .10390625 6.9484875 1.3314 8.802406 3.1 9.603906 L 3.1 8.379297 C 1.9035 7.668797 1.1351562 6.300622 1.1351562 4.769922 C 1.1351562 3.239322 1.90345 2.044875 3.1 1.334375 Z M 4.1 1.959375 C 2.942 2.388135 2.1 3.5085875 2.1 4.8421875 C 2.1 6.1758875 2.94197 7.307919 4.1 7.736719 L 4.1 6.5921875 C 3.5026 6.2376275 3.1722656 5.571731 3.1722656 4.807031 C 3.1722656 4.042241 3.5026 3.466219 4.1 3.1117188 Z M 10.105859 1.9691406 L 10.105859 3.0746094 C 10.703259 3.4291694 11.123437 4.0773875 11.123438 4.8421875 C 11.123438 5.6069775 10.703279 6.1458906 10.105859 6.5003906 L 10.105859 7.625391 C 11.263859 7.196631 12.070703 6.1758875 12.070703 4.8421875 C 12.070703 3.5084875 11.263889 2.3978406 10.105859 1.9691406 Z" stroke="white" stroke-linecap="butt" stroke-linejoin="round" stroke-width="2"/>
        </g>
        <g id="Graphic_5">
          <path d="M 6 8881784e-22 L 6 3.2714844 C 5.38229 3.6281178 5.0012614 4.286732 5 5 C 5.000565 5.713966 5.381687 6.373486 6 6.730469 L 6 14 L 8 14 L 8 6.728516 C 8.61771 6.371882 8.998739 5.713268 9 5 C 8.999435 4.286034 8.618313 3.626514 8 3.2695312 L 8 -8881784e-22 Z M 11.005859 8881784e-22 L 11.005859 1.28125 C 12.202359 1.99175 12.953125 3.1940094 12.953125 4.7246094 C 12.953125 6.2552094 12.202359 7.477 11.005859 8.1875 L 11.005859 9.486328 C 12.774559 8.684768 14.003906 6.830909 14.003906 4.7246094 C 14.003906 2.6183094 12.774459 .8015 11.005859 17763568e-22 Z M 3 .00390625 C 1.2313 .80546625 .00390625 2.6358875 .00390625 4.7421875 C .00390625 6.8484875 1.2314 8.702406 3 9.503906 L 3 8.279297 C 1.8035 7.568797 1.0351562 6.200622 1.0351562 4.669922 C 1.0351562 3.139322 1.80345 1.944875 3 1.234375 Z M 4 1.859375 C 2.842 2.288135 2 3.4085875 2 4.7421875 C 2 6.0758875 2.84197 7.207919 4 7.636719 L 4 6.4921875 C 3.4026 6.1376275 3.0722656 5.471731 3.0722656 4.707031 C 3.0722656 3.942241 3.4026 3.366219 4 3.0117188 Z M 10.005859 1.8691406 L 10.005859 2.9746094 C 10.603259 3.3291694 11.023437 3.9773875 11.023438 4.7421875 C 11.023438 5.5069775 10.603279 6.0458906 10.005859 6.4003906 L 10.005859 7.525391 C 11.163859 7.096631 11.970703 6.0758875 11.970703 4.7421875 C 11.970703 3.4084875 11.163889 2.2978406 10.005859 1.8691406 Z" fill="#555"/>
        </g>
        <g id="Graphic_4">
          <path d="M 4 14 L 7 11 L 10 14 Z" fill="#555"/>
        </g>
      </g>
    </g>
  </g>
</svg>
